src/Assets/OPEN.svg

<svg height="16" viewBox="0 0 38 16" width="38" xmlns="http://www.w3.org/2000/svg" xmlns:xlink="http://www.w3.org/1999/xlink"><defs><path id="a" d="m.735852.680085h36.792444v14.960017h-36.792444z"/><mask id="b" fill="#fff"><use fill="#fff" fill-rule="evenodd" xlink:href="#a"/></mask></defs><g fill="none" fill-rule="evenodd"><use fill="#880d1e" xlink:href="#a"/><path d="m10.9237773 8.1657754c0 .78075257-.1460814 1.45989016-.4382487 2.0374332-.2921672.577543-.69917391 1.0213888-1.22103234 1.3315508-.52185844.3101619-1.12088413.4652406-1.79709506.4652406-.67988599 0-1.28166794-.1550787-1.8053639-.4652406-.52369596-.310162-.93162144-.7540078-1.22378866-1.3315508-.29216722-.57754304-.43824864-1.25668063-.43824864-2.0374332v-.32620321c0-.78075256.14516267-1.46078141.43549236-2.04010695.29032969-.57932553.69641766-1.02406262 1.2182761-1.3342246.52185843-.31016198 1.12272163-.46524064 1.80260762-.46524064.67621093 0 1.27707412.15507866 1.80260762.46524064.52553349.31016198.9343777.75489907 1.2265449 1.3342246.2921673.57932554.4382487 1.25935439.4382487 2.04010695zm-1.81363276-.33689839c0-.77718749-.14332517-1.3716557-.4299798-1.78342246-.28665464-.41176677-.69458011-.61764706-1.22378866-.61764706-.53655867 0-.9454029.20498903-1.22654494.61497326-.28114205.40998422-.42171096 1.00534369-.42171096 1.78609626v.33689839c0 .77718749.14332517 1.37343821.4299798 1.78877005.28665463.41533185.69641761.62299465 1.22930122.62299465.52553349 0 .93070271-.2085541 1.21551982-.62566844.2848171-.41711439.42722352-1.01247385.42722352-1.78609626zm6.98904596-3.72192514c.6210851 0 1.1631482.11229834 1.6262057.3368984.4630575.22460005.8176954.53475738 1.0639244.93048128.2462289.3957239.3693416.84669979.3693416 1.35294118 0 .49911123-.1231127.93671826-.3693416 1.31283422-.246229.37611596-.5990294.66666564-1.0584118.87165776-.4593825.20499211-1.0032831.30748663-1.6317183.30748663h-1.3781403v2.67379676h-1.7915825v-7.78609623zm0 3.71122995c.4226319 0 .7368447-.09714698.9426481-.29144385.2058033-.19429687.3087034-.4572176.3087034-.78877006 0-.22460005-.0441-.42958909-.1323015-.61497326-.0882014-.18538417-.2260141-.33422404-.4134421-.44652406-.187428-.11230003-.4226283-.1684492-.7056079-.1684492h-1.3781403v2.31016043zm6.8402069-2.31016043v1.71122995h3.1090847v1.35294117h-3.1090847v1.92513369h3.6603408v1.3957219h-5.4519233v-7.78609623h5.4519233v1.40106952zm10.2745327 6.38502671-3.0374214-4.93048126v4.93048126h-1.7915825v-7.78609623h1.7915825l3.0374214 4.93582888v-4.93582888h1.7860699v7.78609623z" fill="#fff" mask="url(#b)"/></g></svg>

<?xml version="1.0" encoding="UTF-8"?>
<svg width="38px" height="16px" viewBox="0 0 38 16" version="1.1" xmlns="http://www.w3.org/2000/svg" xmlns:xlink="http://www.w3.org/1999/xlink">
    <!-- Generator: Sketch 53.2 (72643) - https://sketchapp.com -->
    <title>OPEN</title>
    <desc>Created with Sketch.</desc>
    <defs>
        <polygon id="path-1" points="0.735852 0.680085 37.528296 0.680085 37.528296 15.640102 0.735852 15.640102"></polygon>
    </defs>
    <g id="Symbols" stroke="none" stroke-width="1" fill="none" fill-rule="evenodd">
        <g id="Desktop-HD/Common/Header" transform="translate(-365.000000, -77.000000)">
            <g id="Desktop-HD-Header">
                <g id="OPEN" transform="translate(365.000000, 77.000000)">
                    <mask id="mask-2" fill="white">
                        <use xlink:href="#path-1"></use>
                    </mask>
                    <use id="Mask" fill="#880D1E" xlink:href="#path-1"></use>
                    <path d="M10.9237773,8.1657754 C10.9237773,8.94652797 10.7776959,9.62566556 10.4855286,10.2032086 C10.1933614,10.7807516 9.78635469,11.2245974 9.26449626,11.5347594 C8.74263782,11.8449213 8.14361213,12 7.4674012,12 C6.78751521,12 6.18573326,11.8449213 5.6620373,11.5347594 C5.13834134,11.2245974 4.73041586,10.7807516 4.43824864,10.2032086 C4.14608142,9.62566556 4,8.94652797 4,8.1657754 L4,7.83957219 C4,7.05881963 4.14516267,6.37879078 4.43549236,5.79946524 C4.72582205,5.22013971 5.13191002,4.77540262 5.65376846,4.46524064 C6.17562689,4.15507866 6.77649009,4 7.45637608,4 C8.13258701,4 8.7334502,4.15507866 9.2589837,4.46524064 C9.78451719,4.77540262 10.1933614,5.22013971 10.4855286,5.79946524 C10.7776959,6.37879078 10.9237773,7.05881963 10.9237773,7.83957219 L10.9237773,8.1657754 Z M9.11014454,7.82887701 C9.11014454,7.05168952 8.96681937,6.45722131 8.68016474,6.04545455 C8.3935101,5.63368778 7.98558463,5.42780749 7.45637608,5.42780749 C6.91981741,5.42780749 6.51097318,5.63279652 6.22983114,6.04278075 C5.94868909,6.45276497 5.80812018,7.04812444 5.80812018,7.82887701 L5.80812018,8.1657754 C5.80812018,8.94296289 5.95144535,9.53921361 6.23809998,9.95454545 C6.52475461,10.3698773 6.93451759,10.5775401 7.4674012,10.5775401 C7.99293469,10.5775401 8.39810391,10.368986 8.68292102,9.95187166 C8.96773812,9.53475727 9.11014454,8.93939781 9.11014454,8.1657754 L9.11014454,7.82887701 Z M16.0991905,4.10695187 C16.7202756,4.10695187 17.2623387,4.21925021 17.7253962,4.44385027 C18.1884537,4.66845032 18.5430916,4.97860765 18.7893206,5.37433155 C19.0355495,5.77005545 19.1586622,6.22103134 19.1586622,6.72727273 C19.1586622,7.22638396 19.0355495,7.66399099 18.7893206,8.04010695 C18.5430916,8.41622291 18.1902912,8.70677259 17.7309088,8.91176471 C17.2715263,9.11675682 16.7276257,9.21925134 16.0991905,9.21925134 L14.7210502,9.21925134 L14.7210502,11.8930481 L12.9294677,11.8930481 L12.9294677,4.10695187 L16.0991905,4.10695187 Z M16.0991905,7.81818182 C16.5218224,7.81818182 16.8360352,7.72103484 17.0418386,7.52673797 C17.2476419,7.3324411 17.350542,7.06952037 17.350542,6.73796791 C17.350542,6.51336786 17.306442,6.30837882 17.2182405,6.12299465 C17.1300391,5.93761048 16.9922264,5.78877061 16.8047984,5.67647059 C16.6173704,5.56417056 16.3821701,5.50802139 16.0991905,5.50802139 L14.7210502,5.50802139 L14.7210502,7.81818182 L16.0991905,7.81818182 Z M22.9393974,5.50802139 L22.9393974,7.21925134 L26.0484821,7.21925134 L26.0484821,8.57219251 L22.9393974,8.57219251 L22.9393974,10.4973262 L26.5997382,10.4973262 L26.5997382,11.8930481 L21.1478149,11.8930481 L21.1478149,4.10695187 L26.5997382,4.10695187 L26.5997382,5.50802139 L22.9393974,5.50802139 Z M33.2139301,11.8930481 L30.1765087,6.96256684 L30.1765087,11.8930481 L28.3849262,11.8930481 L28.3849262,4.10695187 L30.1765087,4.10695187 L33.2139301,9.04278075 L33.2139301,4.10695187 L35,4.10695187 L35,11.8930481 L33.2139301,11.8930481 Z" fill="#FFFFFF" mask="url(#mask-2)"></path>
                </g>
            </g>
        </g>
    </g>
</svg>
